X:1
T:Swanside, CM
T:Swanside, CM
T:Francis Duckworth (1862-1941)
T:Public Domain Courtesy of the Cyber Hymnal™
C:Francis Duckworth (1862-1941)
Z:Public Domain
Z:Courtesy of the Cyber Hymnal™
%%score ( 1 2 ) ( 3 4 )
L:1/8
Q:1/4=130
M:3/4
K:D
V:1 treble 
V:2 treble 
V:3 bass 
V:4 bass 
V:1
 D2 | [DF]4 [DA]2 | [GB]4 [EA]2 | [DF]4 [DG]2 | [DA]4 [Fd]2 | [Fd]4 [FB]2 | [^Gc]4 [GB]2 | %7
 [EA]4 E2 | A4 [EA]2 x2 | [FA]4 [EA]2 | G4 [DF]2 | [EB]4 [EA]2 | (d2 F2) [EG]2 | [CF]4 [CE]2 | %14
 D4 |] %15
V:2
 D2 | x6 | x6 | x6 | x6 | x6 | x6 | x4 E2 | (G2 F2) x4 | x6 | G4 x2 | x6 | D4 x2 | x6 | D4 |] %15
V:3
 [D,F,]2 | [D,A,]4 [F,A,]2 | [G,D]4 [A,C]2 | B,4 [G,B,]2 | [F,A,]4 [D,A,]2 | [B,,B,]4 [B,,D]2 | %6
 [E,E]4 [E,D]2 | [A,,C]4 [A,C]2 | (E2 D2) C2 x2 | D4 [CE]2 | [B,D]4 [A,D]2 | [^G,D]4 [=G,C]2 | %12
 D4 [E,B,]2 | [A,,A,]4 [A,,G,]2 | [D,F,]4 |] %15
V:4
 x2 | x6 | x6 | B,4 x2 | x6 | x6 | x6 | x6 | A,4 A,4 | x6 | x6 | x6 | (F,2 B,2) x2 | x6 | x4 |] %15

